src/lib/packages/icons/src/assets/line/chart-bar-horizontal.svg

<svg width="24" height="24" viewBox="0 0 24 24" fill="none" xmlns="http://www.w3.org/2000/svg">
<path d="M21 20.75H4.5C3.091 20.75 2.25 19.909 2.25 18.5V4C2.25 3.586 2.586 3.25 3 3.25C3.414 3.25 3.75 3.586 3.75 4V18.5C3.75 19.089 3.911 19.25 4.5 19.25H21C21.414 19.25 21.75 19.586 21.75 20C21.75 20.414 21.414 20.75 21 20.75ZM14.75 7C14.75 6.586 14.414 6.25 14 6.25H7C6.586 6.25 6.25 6.586 6.25 7C6.25 7.414 6.586 7.75 7 7.75H14C14.414 7.75 14.75 7.414 14.75 7ZM12.75 11C12.75 10.586 12.414 10.25 12 10.25H7C6.586 10.25 6.25 10.586 6.25 11C6.25 11.414 6.586 11.75 7 11.75H12C12.414 11.75 12.75 11.414 12.75 11ZM17.75 15C17.75 14.586 17.414 14.25 17 14.25H7C6.586 14.25 6.25 14.586 6.25 15C6.25 15.414 6.586 15.75 7 15.75H17C17.414 15.75 17.75 15.414 17.75 15Z" fill="currentColor"/>
</svg>

<svg xmlns="http://www.w3.org/2000/svg" width="24" height="24" fill="none"><path fill="currentColor" d="M21 20.75H4.5c-1.409 0-2.25-.841-2.25-2.25V4a.75.75 0 0 1 1.5 0v14.5c0 .589.161.75.75.75H21a.75.75 0 0 1 0 1.5ZM14.75 7a.75.75 0 0 0-.75-.75H7a.75.75 0 0 0 0 1.5h7a.75.75 0 0 0 .75-.75Zm-2 4a.75.75 0 0 0-.75-.75H7a.75.75 0 0 0 0 1.5h5a.75.75 0 0 0 .75-.75Zm5 4a.75.75 0 0 0-.75-.75H7a.75.75 0 0 0 0 1.5h10a.75.75 0 0 0 .75-.75Z"/></svg>
